X:77
T:Drowsy Maggie
Z: id:dc-reel-70
M:C
L:1/8
K:E Dorian
D|E2BE dEBE|E2BE AFDF|E2BE dEBE|BABc dAF:|!
A|d2fd c2ec|defg afge|d2fd c2ec|BABc dAFA|!
d2fd c2ec|defg afge|afge fdec|BABc dAF|]!

